!!!OTL: Veni creator spiritus
**kern
*staff1
=--
*clefC1
*k[]
1g
1f
=-
2g
2b
1a
=-
2b
2g
1f
=-
1g
2g
2cc
=-
1b
2.cc
4b
1a
1g
=-
2f
2g
2cc
1b
1cc
2b
=-
1dd
=-
!!linebreak:original
1dd
=-
2a
2cc
1b
2.cc
4b
1a
=-
2b
2g
1f
=-
2.g
4f
2e
2f
=-
2.g
4a
1b
!!linebreak:original
=-
2a
2f
2.e
4f
2g
2a
1g
=-
2a
2g
1f
=-
1g
2.a
4b
=-
2cc
2a
2a
2f
=-
1g
1a
1b
0a
=-=
*-
!!title: @{OTL}, @{GTL}, ed. @{ENC}
!!!pag:
!!!GTL: Hymnbook C
!!!EFL: 
!!!YEM: Creative Commons CC/BY/NC/SA 4.0
!!!ENC: Marcin Konik
!!!END: 2015-0m-dd
!!!EED: Marcin Konik
!!!EEV: 
!!!ONB: Encoded in vim by Marcin Konik
!!!CharacterEncoding: utf-8
!!!RDF**kern: l=long note in original notation
!!!RDF**kern: i=editorial accidental
!!muse2ps: z14jc180F
!!!COM: Anonim
!!!CDT: [?]
!!!TXO: Polish
!!!ODT: 
!!!GTL: Hymnbook C
!!!ARL: Opactwo św. Wojciecha, Staniątki 
!!!voices:	1
